**harm	**harte	**timestamp	**phrase	**leadinstrument	**kern
*M4/4	*M4/4	*	*	*	*
*F:	*F:	*	*	*	*F:
1r;	N	0	.	r	1r;
=1	=1	=1	=1	=1	=1
*>B_intro	*>B_intro	*>B_intro	*>B_intro	*>B_intro	*>B_intro
1I7c	F:maj/5	0.754	newline	r	1f 1a 1C 1ee
.	D:min7	1.495	.	r	.
.	F:maj7/7	2.237	.	r	.
=2	=2	=2	=2	=2	=2
1ii7c	G:min7/5	3.719	newline	r	1g 1b- 1D 1ff
.	C:7/3	4.456	.	r	.
.	B-:maj6/5	5.194	.	r	.
=3	=3	=3	=3	=3	=3
2Vb	C:maj6/3	6.668	newline	r	2c 2E 2g
.	F:maj6	7.42	.	r	.
2vio	D:dim	8.171	.	r	2D 2f 2a-
.	C:sus4/5	8.923	.	r	.
=4	=4	=4	=4	=4	=4
2ii7	G:min7	9.674	newline	r	2G 2b- 2dd 2ff
.	C:dim	10.434	.	r	.
2V7	G:min	11.194	.	r	2C 2e 2g 2b-
.	D:7	11.954	.	r	.
=5	=5	=5	=5	=5	=5
*>A_verse	*>A_verse	*>A_verse	*>A_verse	*>A_verse	*>A_verse
1I	F:maj6	12.714	newline	voice	1F 1a 1cc
=6	=6	=6	=6	=6	=6
1I	F:maj6	15.476	.	voice	1F 1a 1cc
=7	=7	=7	=7	=7	=7
1VII7b	E:7/b3	18.238	.	voice	1e 1G# 1b 1dd
=8	=8	=8	=8	=8	=8
1VII7b	E:7/b3	21	.	voice	1e 1G# 1b 1dd
=9	=9	=9	=9	=9	=9
1V7	C:7	23.761	newline	voice	1C 1e 1g 1b-
=10	=10	=10	=10	=10	=10
1V7	C:7	26.44	.	voice	1C 1e 1g 1b-
=11	=11	=11	=11	=11	=11
1II7	G:7	29.118	.	voice	1G 1b 1dd 1ff
=12	=12	=12	=12	=12	=12
1II7	G:7	31.796	.	voice	1G 1b 1dd 1ff
=13	=13	=13	=13	=13	=13
1v7	C:min7	34.474	newline	voice	1C 1e- 1g 1b-
=14	=14	=14	=14	=14	=14
1-viim7	E-:min7	37.154	.	voice	1E- 1g- 1b- 1dd
=15	=15	=15	=15	=15	=15
2IV	B-:maj	39.834	.	voice	2B- 2dd 2ff
2vio	D:dim	41.174	.	voice	2D 2f 2a-
=16	=16	=16	=16	=16	=16
1II7	G:7	42.514	.	voice	1G 1b 1dd 1ff
=17	=17	=17	=17	=17	=17
1V7	C:13	45.194	newline	voice	1C 1e 1g 1b-
=18	=18	=18	=18	=18	=18
1V7	C:13	47.87	.	voice	1C 1e 1g 1b-
.	B:7	49.877	.	voice	.
=19	=19	=19	=19	=19	=19
1V7	C:7	50.546	.	voice	1C 1e 1g 1b-
=20	=20	=20	=20	=20	=20
1V7	C:7	53.222	.	voice	1C 1e 1g 1b-
=21	=21	=21	=21	=21	=21
*>A_verse	*>A_verse	*>A_verse	*>A_verse	*>A_verse	*>A_verse
1I	F:maj6	55.897	newline	voice	1F 1a 1cc
=22	=22	=22	=22	=22	=22
1I	F:maj6	58.513	.	voice	1F 1a 1cc
=23	=23	=23	=23	=23	=23
1VII7b	E:7/b3	61.129	.	voice	1e 1G# 1b 1dd
=24	=24	=24	=24	=24	=24
1VII7b	E:7/b3	63.745	.	voice	1e 1G# 1b 1dd
=25	=25	=25	=25	=25	=25
1V7	C:7	66.361	newline	voice	1C 1e 1g 1b-
=26	=26	=26	=26	=26	=26
1V7	C:7	68.994	.	voice	1C 1e 1g 1b-
=27	=27	=27	=27	=27	=27
1II7	G:7	71.627	.	voice	1G 1b 1dd 1ff
=28	=28	=28	=28	=28	=28
1II7	G:7	74.26	.	voice	1G 1b 1dd 1ff
=29	=29	=29	=29	=29	=29
1v7	C:min7	76.893	newline	voice	1C 1e- 1g 1b-
=30	=30	=30	=30	=30	=30
1-viim7	E-:min7	79.526	.	voice	1E- 1g- 1b- 1dd
=31	=31	=31	=31	=31	=31
*B-:	*B-:	*	*	*	*B-:
2I	B-:maj	82.16	.	voice	2B- 2dd 2ff
2-VII7	A-:maj13	83.476	.	voice	2A- 2cc 2ee- 2gg
=32	=32	=32	=32	=32	=32
1VI7	G:7	84.793	.	voice	1G 1b 1dd 1ff
=33	=33	=33	=33	=33	=33
2II7	C:sus4(b7)	87.426	newline	voice	2C 2e 2g 2b-
2II7	C:7	88.751	.	voice	2C 2e 2g 2b-
=34	=34	=34	=34	=34	=34
2V7	F:sus4(b7)	90.076	.	voice	2F 2a 2cc 2ee-
2V7	F:7	91.402	.	voice	2F 2a 2cc 2ee-
=35	=35	=35	=35	=35	=35
2I	B-:maj	92.727	.	voice	2B- 2dd 2ff
2vi	G:min	94.052	.	voice	2G 2b- 2dd
=36	=36	=36	=36	=36	=36
*D-:	*D-:	*	*	*	*D-:
2ii7	E-:min7	95.377	.	voice	2E- 2g- 2b- 2dd-
2V7	A-:7	96.702	.	voice	2A- 2cc 2ee- 2gg-
=37	=37	=37	=37	=37	=37
*>C_solo	*>C_solo	*>C_solo	*>C_solo	*>C_solo	*>C_solo
1I	D-:maj6	98.027	newline	piano	1D- 1f 1a-
=38	=38	=38	=38	=38	=38
1I	D-:maj6	100.649	.	piano	1D- 1f 1a-
=39	=39	=39	=39	=39	=39
1VII7e	C:7(b9)/b2	103.27	.	piano	1C 1e 1g 1b-
=40	=40	=40	=40	=40	=40
1VII7e	C:7(b9)/b2	105.891	.	piano	1C 1e 1g 1b-
=41	=41	=41	=41	=41	=41
1IV	G-:maj6	108.512	newline	piano	1G- 1b- 1dd-
=42	=42	=42	=42	=42	=42
1IV	G-:maj6	111.137	.	piano	1G- 1b- 1dd-
=43	=43	=43	=43	=43	=43
1II7	E-:7	113.763	.	piano	1E- 1g 1b- 1dd-
=44	=44	=44	=44	=44	=44
1II7	E-:7	116.388	.	piano	1E- 1g 1b- 1dd-
=45	=45	=45	=45	=45	=45
1v7	A-:min9	119.013	newline	piano	1A- 1cc- 1ee- 1gg-
=46	=46	=46	=46	=46	=46
1-vii	C-:min6	121.721	.	piano	1C- 1e-- 1g-
=47	=47	=47	=47	=47	=47
2IVc	G-:maj6/5	124.429	.	piano	2g- 2b- 2D-
4vi	B-:sus4(b7)	125.784	.	piano	4B- 4dd- 4ff
4vio7	B-:hdim7	126.461	.	piano	4B- 4dd- 4ff- 4aa-
=48	=48	=48	=48	=48	=48
1II7	E-:7	127.138	.	piano	1E- 1g 1b- 1dd-
=49	=49	=49	=49	=49	=49
2V7	A-:9	129.846	newline	piano	2A- 2cc 2ee- 2gg-
2V	A-:maj	131.193	.	piano	2A- 2cc 2ee-
=50	=50	=50	=50	=50	=50
2.V7	A-:9	132.541	.	piano	2A- 2cc 2ee- 2gg-
4#IV7	G:7	134.561	.	piano	4G 4b 4dd 4ff
=51	=51	=51	=51	=51	=51
1V7	A-:7	135.235	.	piano	1A- 1cc 1ee- 1gg-
=52	=52	=52	=52	=52	=52
4V7	A-:7	137.929	.	piano	4A- 4cc 4ee- 4gg-
4VII	C:maj6	138.603	.	piano	4C 4e 4g
4VI	B-:maj6	139.276	.	piano	4B- 4dd 4ff
4V	A-:maj6	139.95	.	piano	4A- 4cc 4ee-
=53	=53	=53	=53	=53	=53
*>A_verse	*>A_verse	*>A_verse	*>A_verse	*>A_verse	*>A_verse
*F:	*F:	*	*	*	*F:
1I7	F:maj7	140.623	newline	voice	1F 1a 1cc 1ee
=54	=54	=54	=54	=54	=54
1I7	F:maj7	143.275	.	voice	1F 1a 1cc 1ee
=55	=55	=55	=55	=55	=55
1VII7b	E:7/b3	145.927	.	voice	1e 1G# 1b 1dd
=56	=56	=56	=56	=56	=56
1VII7b	E:7/b3	148.578	.	voice	1e 1G# 1b 1dd
=57	=57	=57	=57	=57	=57
1V7	C:7	151.23	newline	voice	1C 1e 1g 1b-
=58	=58	=58	=58	=58	=58
1V7	C:7	153.839	.	voice	1C 1e 1g 1b-
=59	=59	=59	=59	=59	=59
1II7	G:7	156.448	.	voice	1G 1b 1dd 1ff
=60	=60	=60	=60	=60	=60
1II7	G:7	159.057	.	voice	1G 1b 1dd 1ff
=61	=61	=61	=61	=61	=61
1v7	C:min7	161.667	newline	voice	1C 1e- 1g 1b-
=62	=62	=62	=62	=62	=62
1-viim7	E-:min7	164.33	.	voice	1E- 1g- 1b- 1dd
=63	=63	=63	=63	=63	=63
*B-:	*B-:	*	*	*	*B-:
2I	B-:maj	166.993	.	voice	2B- 2dd 2ff
2-VII7	A-:maj6(7)	168.325	.	voice	2A- 2cc 2ee- 2gg
=64	=64	=64	=64	=64	=64
1VI7	G:7	169.657	.	voice	1G 1b 1dd 1ff
=65	=65	=65	=65	=65	=65
2ii	C:sus4(b7)	172.32	newline	voice	2C 2e- 2g
2II7	C:7	173.651	.	voice	2C 2e 2g 2b-
=66	=66	=66	=66	=66	=66
2V	F:sus4(b7)	174.981	.	voice	2F 2a 2cc
2V7	F:7	176.312	.	voice	2F 2a 2cc 2ee-
=67	=67	=67	=67	=67	=67
2I	B-:maj	177.643	.	voice	2B- 2dd 2ff
2-III	D-:maj6	178.973	.	voice	2D- 2f 2a-
=68	=68	=68	=68	=68	=68
2-V	F-:maj6	180.304	.	voice	2F- 2a- 2cc-
2-III	D-:maj6	181.635	.	voice	2D- 2f 2a-
=69	=69	=69	=69	=69	=69
1I	B-:maj(9)	182.965	.	voice	1B- 1dd 1ff
1r;	N	188.953	.	r	1r;
1r;	N	193.384	.	r	1r;
*-	*-	*-	*-	*-	*-
!!!OTL: Unforgettable
!!!COC: Natalie Cole
!!!BillboardChartDate: 1991/11/02
!!!BillboardPeak: 14
!!!BillboardWeeksOnChart: 17
!!!SampleTargetRank: 88
!!!SampleActualRank: 88
!!!SampleID#: 0982
!!!RDF**harmony: **recip + pitch class of root + harmonic quality
!!!RDF**harte: Chris Harte's syntax, used by MIREX
!!!RDF**phrase: newline = linebreak in original McGill transcription
!!!RDF**timestamp: McGill audio timestamp in seconds
!!!RDF**leadinstrument: original McGill primary instrumentation annotation
!!!RDT: 2017/01/12/
!!!ENC: Nathaniel Condit-Schultz
!!!EST: Awating manual error checking and editing.
